X: 3314
T: Vals
B:[[Notböcker/Melodier til gamle danske Almuedanse for Violin solo]]
O:Danmark
Z:Søren Bak Vestergaard
M: 3/8
L: 1/16
K: G
!upbow!G2|Bdg2 bg|dBG2 BG|FAd2 fa|gfg2 !upbow!G2|Bdg2 bg|\
dBG2 BG|FAd2 fa|g2 z2:| |:!upbow!d2|gfgdBd|cde2 (ce)|\
d^cd=cAF|GBD2 d2|gfgdBd|cde2 (ce)|d^c(d=c)AF|\
G2 z2:| |:[K: C]G2|cBcdef|g^fg2 (eg)|=fefdec|\
dB G2G2|cBcdef|g^fg2 (eg)|fefdBd|c2 z2:|
(:musicend:)
(:music:)
